X: 305843
M: 6/8
L: 1/8
K: G
d |\
dBd dBd | efg gfe | dBd dBG | AFD D2d |\
dBd dBd | efg gfe | dgd dcB | AFD "^D.C."G2 |]


